mresponse/frontend/app/public/static/media/icons/moderate.svg

<svg width="18" height="22" xmlns="http://www.w3.org/2000/svg" xmlns:xlink="http://www.w3.org/1999/xlink"><defs><path d="M15 2h-1c0-1.1-.9-2-2-2H6C4.9 0 4 .9 4 2H3C1.3 2 0 3.3 0 5v14c0 1.7 1.3 3 3 3h12c1.7 0 3-1.3 3-3V5c0-1.7-1.3-3-3-3zM6 2h6v2H6V2zm10 17c0 .6-.4 1-1 1H3c-.6 0-1-.4-1-1V5c0-.6.4-1 1-1h1c0 1.1.9 2 2 2h6c1.1 0 2-.9 2-2h1c.6 0 1 .4 1 1v14z" id="a"/></defs><g fill="none" fill-rule="evenodd"><path d="M15 2h-1c0-1.1-.9-2-2-2H6C4.9 0 4 .9 4 2H3C1.3 2 0 3.3 0 5v14c0 1.7 1.3 3 3 3h12c1.7 0 3-1.3 3-3V5c0-1.7-1.3-3-3-3zM6 2h6v2H6V2zm10 17c0 .6-.4 1-1 1H3c-.6 0-1-.4-1-1V5c0-.6.4-1 1-1h1c0 1.1.9 2 2 2h6c1.1 0 2-.9 2-2h1c.6 0 1 .4 1 1v14z" fill="#000" fill-rule="nonzero"/><mask id="b" fill="#fff"><use xlink:href="#a"/></mask><g mask="url(#b)" fill="#FFF" fill-rule="nonzero"><path d="M-3-1h24v24H-3z"/></g><path d="M4 9h10v1H4V9zm0 3h10v1H4v-1zm0 3h10v1H4v-1z" fill="#FFF" fill-rule="nonzero"/></g></svg>

<?xml version="1.0" encoding="UTF-8"?>
<svg width="18px" height="22px" viewBox="0 0 18 22" version="1.1" xmlns="http://www.w3.org/2000/svg" xmlns:xlink="http://www.w3.org/1999/xlink">
    <!-- Generator: Sketch 51.2 (57519) - http://www.bohemiancoding.com/sketch -->
    <title>group_3</title>
    <desc>Created with Sketch.</desc>
    <defs>
        <path d="M15,2 L14,2 C14,0.9 13.1,0 12,0 L6,0 C4.9,0 4,0.9 4,2 L3,2 C1.3,2 0,3.3 0,5 L0,19 C0,20.7 1.3,22 3,22 L15,22 C16.7,22 18,20.7 18,19 L18,5 C18,3.3 16.7,2 15,2 Z M6,2 L12,2 L12,4 L6,4 L6,2 Z M16,19 C16,19.6 15.6,20 15,20 L3,20 C2.4,20 2,19.6 2,19 L2,5 C2,4.4 2.4,4 3,4 L4,4 C4,5.1 4.9,6 6,6 L12,6 C13.1,6 14,5.1 14,4 L15,4 C15.6,4 16,4.4 16,5 L16,19 Z" id="path-1"></path>
    </defs>
    <g id="Page-1" stroke="none" stroke-width="1" fill="none" fill-rule="evenodd">
        <g id="group_3">
            <g id="Group">
                <g id="b-link" fill="#000000" fill-rule="nonzero">
                    <path d="M15,2 L14,2 C14,0.9 13.1,0 12,0 L6,0 C4.9,0 4,0.9 4,2 L3,2 C1.3,2 0,3.3 0,5 L0,19 C0,20.7 1.3,22 3,22 L15,22 C16.7,22 18,20.7 18,19 L18,5 C18,3.3 16.7,2 15,2 Z M6,2 L12,2 L12,4 L6,4 L6,2 Z M16,19 C16,19.6 15.6,20 15,20 L3,20 C2.4,20 2,19.6 2,19 L2,5 C2,4.4 2.4,4 3,4 L4,4 C4,5.1 4.9,6 6,6 L12,6 C13.1,6 14,5.1 14,4 L15,4 C15.6,4 16,4.4 16,5 L16,19 Z" id="b"></path>
                </g>
                <g id="Clipped">
                    <mask id="mask-2" fill="white">
                        <use xlink:href="#path-1"></use>
                    </mask>
                    <g id="b"></g>
                    <g id="Group" mask="url(#mask-2)" fill="#FFFFFF" fill-rule="nonzero">
                        <g transform="translate(-3.000000, -1.000000)" id="Shape">
                            <polygon points="0 0 24 0 24 24 0 24"></polygon>
                        </g>
                    </g>
                </g>
            </g>
            <path d="M4,9 L14,9 L14,10 L4,10 L4,9 Z M4,12 L14,12 L14,13 L4,13 L4,12 Z M4,15 L14,15 L14,16 L4,16 L4,15 Z" id="Shape" fill="#FFFFFF" fill-rule="nonzero"></path>
        </g>
    </g>
</svg>
